X:253
T:Old Blair Mill
C:John McCutcheon
N:TablEdited by Mike Black
L:1/8
Q:1/4=200
M:4/4
K:A
z8 | "A"e2 A2 e2 cd | ef ed cB A2 | "E"B2 BA Bd cB | "A"A2 cB AB cd | e2 A2 e2 cd | 
ef ed cB A2 | "E"B2 BA Bd cB | cA BG "A"A4 | "E"B3B B4 | B2 Bc dc Bc | "A"A2 AB cB A2 | 
A2 AB cB Ac | "E"B3B B4 | B2 Bc dc Bc | "A"A2 AB cB A2 | A2 AB cd e2 | "D"f3f f3e | 
fe fg a4 | "A"ef ed cB A2 | "E"B2 Bc dc B2 | "A"A2 AA "E"B2 BB | "A"cB AB "D"cd ef | 
"E"ef ed cA Bc | "A"A2 AB cd e2 | "D"f3f f3e | fe fg a4 | "A"ef ed cB A2 | "E"B2 Bc dc B2 | 
"A"A2 AA "E"BA B2 | "A"cB AB "D"cd ef | "E"ef ef gf eg | "A"a8 | 
 

